assets/Lotion bottle/Flat/lotion_bottle_flat.svg

<svg width="32" height="32" viewBox="0 0 32 32" fill="none" xmlns="http://www.w3.org/2000/svg">
<path d="M14 6.5V4H18V6.5C18.0034 7 18.5043 7.14 18.5043 7.14L16 8.5L13.4952 7.14206C13.4952 7.14206 14.0005 7 14 6.5Z" fill="#F8312F"/>
<path d="M7 15C7 10.5817 10.5817 7 15 7H17C21.4183 7 25 10.5817 25 15V26C25 28.2091 23.2091 30 21 30H11C8.79086 30 7 28.2091 7 26V15Z" fill="#FBB8AB"/>
<path d="M17 14C17 14 16 12 15 14C15 14 12 18.5 12 21.5C12 22.5 12.5 24.9999 16 25C19.5 25 20 22.5 20 21.5C20 18.5 17 14 17 14Z" fill="#F3EEF8"/>
<path d="M14 5C12 4 13 2 15 2C16 2 21 3 21 3C22.5 3.5 22 5 21 5H14Z" fill="#FF8687"/>
</svg>

<svg xmlns="http://www.w3.org/2000/svg" width="32" height="32" fill="none"><path fill="#F8312F" d="M14 6.5V4h4v2.5c.003.5.504.64.504.64L16 8.5l-2.505-1.358S14.001 7 14 6.5Z"/><path fill="#FBB8AB" d="M7 15a8 8 0 0 1 8-8h2a8 8 0 0 1 8 8v11a4 4 0 0 1-4 4H11a4 4 0 0 1-4-4V15Z"/><path fill="#F3EEF8" d="M17 14s-1-2-2 0c0 0-3 4.5-3 7.5 0 1 .5 3.5 4 3.5s4-2.5 4-3.5c0-3-3-7.5-3-7.5Z"/><path fill="#FF8687" d="M14 5c-2-1-1-3 1-3 1 0 6 1 6 1 1.5.5 1 2 0 2h-7Z"/></svg>
